X:1
T:Title
%%score 1 { 2 | ( 3 4 ) }
L:1/8
Q:1/4=113
M:4/4
K:G
V:1 treble nm="Grand Piano, Unnamed-000"
V:2 treble nm="Choir Pad, St. Michael, SM"
V:3 bass 
V:4 bass 
V:1
 [B,D]2 [EG]2 [GB]2 [GA]2 | [FA]2 [GB]6 | [Ad]2 [Gc]2 [GB]2 [GA]2 | [FA]2 G6 | %4
w: By~Genevan~Psalter,~1551 * * *||||
 [EG]2 [DF]2 [CE]2 [B,D]2 | [DG]2 [EG]2 [EA]2 [^DB]2 | [DB]2 [CA]2 [DG]2 [EG]2 | [DF]2 [DG]6- | %8
w: ||||
 [DG]2 z2 z4 |] %9
w: |
V:2
 G,2 B,2 D2 E2 | D2 D6 | D2 E2 D2 D2- | D2[K:bass] B,6 | B,2 B,2 G,2 G,2 | G,2 B,2 A,2 F,2 | %6
 G,2 E,F, G,2 C2 | A,2 B,6- | B,2 z2 z4 |] %9
V:3
 z2 E,2 B,,2 C,2 | D,2 G,6 | F,2 E,2 G,2 D,2 | z C G,,6 | E,2 B,,2 C,2 G,,2 | B,,2 E,2 C,2 B,,2 | %6
 G,,2 A,,2 B,,2 B,,2 | D,2 G,,6- | G,,2 z2 z4 |] %9
V:4
 x8 | x8 | x8 | D,2 z2 z4 | x8 | x8 | x8 | x8 | x8 |] %9

